Sources/FrostedUI/Resources/Icons.xcassets/downloadDocumentFilled20.imageset/download-document-filled-20.svg

<svg width="20" height="20" viewBox="0 0 20 20" fill="none" xmlns="http://www.w3.org/2000/svg" data-fui-icon="true">
  <path
    d="M9.92383 0.25C10.6367 0.25 11.3199 0.535788 11.8223 1.04199L16.9658 6.22559H16.9668C17.4689 6.73152 17.7499 7.41691 17.75 8.12988V17.0537C17.75 18.5371 16.5553 19.7498 15.0693 19.75H4.93066C3.44472 19.7498 2.25 18.5371 2.25 17.0537V2.94629C2.25 1.46293 3.44471 0.250201 4.93066 0.25H9.92383ZM10.2266 8.75C9.81235 8.75 9.47656 9.08579 9.47656 9.5V14.2939L8.42383 13.2422C8.13094 12.9493 7.65617 12.9493 7.36328 13.2422C7.0705 13.5351 7.07042 14.0099 7.36328 14.3027L9.36426 16.3037C9.80357 16.7428 10.5158 16.7429 10.9551 16.3037L13.1289 14.1289C13.4218 13.836 13.4218 13.3612 13.1289 13.0684C12.836 12.7758 12.3611 12.7756 12.0684 13.0684L10.9766 14.1611V9.5C10.9766 9.08588 10.6406 8.75015 10.2266 8.75ZM11.4746 5.37793C11.4746 6.04389 12.0084 6.57422 12.6553 6.57422H15.1992L11.4746 2.82031V5.37793Z"
    fill="currentColor"
  />
</svg>

<svg xmlns="http://www.w3.org/2000/svg" width="20" height="20" fill="none" data-fui-icon="true" viewBox="0 0 20 20"><path fill="currentColor" d="M9.924.25c.713 0 1.396.286 1.898.792l5.144 5.184c.503.506.784 1.19.784 1.904v8.924a2.69 2.69 0 0 1-2.68 2.696H4.93a2.69 2.69 0 0 1-2.68-2.696V2.946A2.69 2.69 0 0 1 4.93.25zm.303 8.5a.75.75 0 0 0-.75.75v4.794l-1.053-1.052a.75.75 0 1 0-1.06 1.06l2 2.002c.44.439 1.152.439 1.591 0l2.174-2.175a.75.75 0 1 0-1.06-1.06l-1.092 1.092V9.5a.75.75 0 0 0-.75-.75m1.248-3.372c0 .666.533 1.196 1.18 1.196H15.2L11.475 2.82z"/></svg>
